!!!OTL: The Three Gallant Huntsmen
!!!ONM: 97.
**kern
*clefG2
*k[b-]
*F:
*M6/8
*MM80
{16c
16c
=1
4f
8g
4a
8f
=2
(4a
8b-)
4cc
8g
=3
4g
8a
4f
8e
=4
4.f
4r}
{8c
=5
4f
8g
4a
8f
=6
(4a
8b-)
4cc
8g
=7
4g
8a
4f
8e
=8
4.f
4r}
{8a
=9
4a
8a
(8a
8g)
8f
=10
[4g
8g]
4a
8g
=11
4g
8a
4f
8e
=12
4.f
4r}
{8g
=13
4g
8g
(8a
8g)
8f
=14
[4g
8g]
4a
8g
=15
4g
8a
4f
8e
=16
4.f
4r}
==
*-
!!!CNT: Folksongs of Maritime Canada
!!!MRD: 1928///-1932///
!!!OCL: Helen Creighton
!!!YOR: Songs and Ballads from Nova Scotia
!!!PPR: J.M. Dent & Sons, Limited
!!!PPP: Toronto, Canada
!!!PDT: 1932///
!!!reprint: Dover Publications, 1992: ISBN 0-486-21703-5
!!!ENC1: Craig Stuart Sapp (music and bibliographic data)                       
!!!ENC2: Marcus Pearce (phrase markings and key designations)                   
!!!ENC3: Darrell Conklin (phrase markings and key designations)   
!!!END: 2002/04/10/
!!!EEV: 2004/06/05
!!!MPN: Mr. Ben Henneberry
!!!PPG: 208
!!!EFL: 98/152
!!!ARE: Canada; Nova Scotia
!!!verses: 8
!!!VTS: 2142287595
